icons/svg/crypto/dego.svg

<svg fill="none" height="32" viewBox="0 0 32 32" width="32" xmlns="http://www.w3.org/2000/svg"><circle cx="16" cy="16" fill="#fff" r="16"/><path d="m9 8h3.33333v3.33333h-3.33333z" fill="#ff5173"/><path d="m9 11.3333h3.33333v3.33333h-3.33333z" fill="#ffd767"/><path d="m9 14.6667h3.33333v6h-3.33333z" fill="#22d99d"/><path d="m9 20.6667h10.6667v3.33333h-10.6667z" fill="#4f4f4f"/><path d="m19.6667 20.6667h3.3333l-3.3333 3.3333z" fill="#787878"/><path d="m19.6667 11.3333h3.33333v9.33334h-3.33333z" fill="#4f4f4f"/><path d="m19.6667 8 3.3333 3.3333h-3.3333z" fill="#787878"/><path d="m12.3333 8h7.33333v3.33333h-7.33333z" fill="#4f4f4f"/></svg>

<svg fill="none" height="32" width="32" xmlns="http://www.w3.org/2000/svg">
    <circle cx="16" cy="16" fill="#fff" r="16" />
    <path d="M9 8h3.333v3.333H9z" fill="#FF5173" />
    <path d="M9 11.333h3.333v3.333H9z" fill="#FFD767" />
    <path d="M9 14.667h3.333v6H9z" fill="#22D99D" />
    <path d="M9 20.667h10.667V24H9z" fill="#4F4F4F" />
    <path d="M19.667 20.667H23L19.667 24v-3.333Z" fill="#787878" />
    <path d="M19.667 11.333H23v9.333h-3.333z" fill="#4F4F4F" />
    <path d="M19.667 8 23 11.333h-3.333V8Z" fill="#787878" />
    <path d="M12.333 8h7.333v3.333h-7.333z" fill="#4F4F4F" />
</svg>
